build/dist/assets/images/contacts/oldPhoneIco.svg

<svg width="33" height="28" viewBox="0 0 33 28" fill="none" xmlns="http://www.w3.org/2000/svg">
<g clip-path="url(#clip0_807_591)">
<mask id="path-1-inside-1_807_591" fill="white">
<path d="M6.4795 27.5C2.90097 27.5 -0.113457 24.4918 1.25599 21.1857C2.08519 19.1839 3.30057 17.3649 4.83274 15.8327C6.3649 14.3006 8.18385 13.0852 10.1857 12.256C12.1876 11.4268 14.3332 11 16.5 11C18.6668 11 20.8124 11.4268 22.8143 12.256C24.8161 13.0852 26.6351 14.3006 28.1673 15.8327C29.6994 17.3649 30.9148 19.1839 31.744 21.1857C33.1135 24.4919 30.099 27.5 26.5205 27.5H16.5H6.4795Z"/>
</mask>
<path d="M6.4795 27.5C2.90097 27.5 -0.113457 24.4918 1.25599 21.1857C2.08519 19.1839 3.30057 17.3649 4.83274 15.8327C6.3649 14.3006 8.18385 13.0852 10.1857 12.256C12.1876 11.4268 14.3332 11 16.5 11C18.6668 11 20.8124 11.4268 22.8143 12.256C24.8161 13.0852 26.6351 14.3006 28.1673 15.8327C29.6994 17.3649 30.9148 19.1839 31.744 21.1857C33.1135 24.4919 30.099 27.5 26.5205 27.5H16.5H6.4795Z" stroke="#003837" stroke-width="4" mask="url(#path-1-inside-1_807_591)"/>
<circle cx="17" cy="20" r="3" stroke="#003837" stroke-width="2"/>
<path d="M27.285 10.0729L27.2851 10.0729C27.4957 10.0991 27.7095 10.0803 27.9124 10.0177C28.1152 9.95505 28.3024 9.85002 28.4616 9.70956C28.6208 9.5691 28.7483 9.39642 28.8356 9.20295C28.923 9.0096 28.9683 8.79991 28.9685 8.58776C28.9685 8.58763 28.9685 8.5875 28.9685 8.58738L28.9685 6.49471C28.9685 5.33487 28.3576 4.26317 27.3355 3.77246L27.285 10.0729ZM27.285 10.0729L23.134 9.55565C22.6781 9.49866 22.2732 9.23484 22.0362 8.83994L22.0361 8.83975M27.285 10.0729L22.0361 8.83975M22.0361 8.83975L20.3729 6.06911L20.3727 6.06875M22.0361 8.83975L20.3727 6.06875M20.3727 6.06875C20.1977 5.77751 19.9504 5.53646 19.6547 5.369L19.1619 6.23913M20.3727 6.06875L19.1619 6.23913M19.1619 6.23913L19.6547 5.369C19.3591 5.20155 19.0252 5.11339 18.6854 5.11308H18.6845H13.7101H13.7095L19.1619 6.23913ZM10.3583 8.83996L10.3583 8.83984L12.0202 6.0708C12.0202 6.07077 12.0202 6.07074 12.0202 6.07071L12.0205 6.07021L12.8779 6.5848L10.3583 8.83996ZM10.3583 8.83996C10.2414 9.0347 10.0819 9.20032 9.8916 9.32432C9.70134 9.44831 9.48539 9.52744 9.26006 9.5557L5.11027 10.0739C4.21428 10.1858 3.42543 9.48739 3.42604 8.5888L3.42604 8.58813M10.3583 8.83996L3.42604 8.58813M3.42604 8.58813V6.49471C3.42604 5.33474 4.03595 4.2642 5.05991 3.77352L5.0601 3.77343M3.42604 8.58813L5.0601 3.77343M5.0601 3.77343C8.53587 2.10697 12.3422 1.24446 16.1969 1.24989L16.1997 1.24988M5.0601 3.77343L16.1997 1.24988M16.1997 1.24988C20.0538 1.2443 23.8597 2.10641 27.3351 3.77227L16.1997 1.24988Z" stroke="#003837" stroke-width="2"/>
</g>
<defs>
<clipPath id="clip0_807_591">
<rect width="33" height="28" fill="white"/>
</clipPath>
</defs>
</svg>

<svg width="33" height="28" fill="none" xmlns="http://www.w3.org/2000/svg"><g clip-path="url(#clip0_807_591)"><mask id="path-1-inside-1_807_591" fill="#fff"><path d="M6.48 27.5c-3.579 0-6.593-3.008-5.224-6.314a16.501 16.501 0 0130.488 0c1.37 3.306-1.645 6.314-5.224 6.314H6.48z"/></mask><path d="M6.48 27.5c-3.579 0-6.593-3.008-5.224-6.314a16.501 16.501 0 0130.488 0c1.37 3.306-1.645 6.314-5.224 6.314H6.48z" stroke="#003837" stroke-width="4" mask="url(#path-1-inside-1_807_591)"/><circle cx="17" cy="20" r="3" stroke="#003837" stroke-width="2"/><path d="M27.285 10.073h0a1.5 1.5 0 001.683-1.485s0 0 0 0V6.494c0-1.16-.61-2.232-1.633-2.723l-.05 6.3zm0 0l-4.151-.517a1.497 1.497 0 01-1.098-.716h0m5.249 1.233L22.036 8.84m0 0l-1.663-2.77v-.001m1.663 2.77l-1.663-2.77m0 0a1.97 1.97 0 00-.718-.7l-.493.87m1.21-.17l-1.21.17m0 0l.493-.87a1.97 1.97 0 00-.97-.256h0-4.975 0l5.452 1.126zM10.358 8.84h0l1.662-2.77s0 0 0 0h0l.858.515-2.52 2.255zm0 0a1.498 1.498 0 01-1.098.716l-4.15.518a1.497 1.497 0 01-1.684-1.485h0m6.932.251l-6.932-.252m0 0V6.495c0-1.16.61-2.23 1.634-2.721h0M3.426 8.587L5.06 3.773m0 0A25.676 25.676 0 0116.197 1.25h.003M5.06 3.773L16.2 1.25m0 0c3.854-.006 7.66.856 11.135 2.522L16.2 1.25z" stroke="#003837" stroke-width="2"/></g><defs><clipPath id="clip0_807_591"><path fill="#fff" d="M0 0h33v28H0z"/></clipPath></defs></svg>
